X:0101
T:Petronella
P:Petronella
C:Nath. Gow's Repository 1820
R:Reel (8x32)
B:RSCDS 1-1
Z:Anselm Lingnau <anselm@strathspey.org>
M:2/4
L:1/16
K:F
|:fc|"F"A2cA "C7"G2cA|"F"F2F2F2 Ac|"F"f2ef "Gm"g2f2|"C"e2ge c2fc|
     "F"A2cA "C7"G2cA|"F"F2F2F2 Ac|"F"f2ef "C7"[g2B2]e2|"F"[f4A4] [f2A2]:|
|:fc|"F"A2af c2c'a|"Gm"b2ba gfed|"C7"c2ge c2bg|"F"a2af cfcA|
     "F"A2af c2c'a|"Gm"b2ba gfed|"C7"c2ge cbge|"F"f4 [f2A2]:|

